GeneralPlan/dist/assets/img/customer-studio-4.svg

<svg width="181" height="33" viewBox="0 0 181 33" fill="none" xmlns="http://www.w3.org/2000/svg">
<g clip-path="url(#clip0_138_1160)">
<path d="M36.9632 25.0513C37.0904 25.8975 37.1412 26.6667 37.1412 27.436C37.1412 28.5642 37.014 29.7436 36.7597 30.9488H25.1594L23.9637 31.5385H23.5567H37.2684L37.3193 31.3077C37.5991 29.9744 37.7518 28.6924 37.7518 27.436C37.7518 26.5898 37.6755 25.718 37.5483 24.7693L36.9632 25.0513Z" fill="white"/>
<path d="M36.1237 15.2821C37.9044 17.5898 39.2527 20.3077 39.965 22.8975L24.1418 30.7949L23.5567 31.5641H23.9637L25.1594 30.9744L36.9632 25.077L37.5228 24.7949L40.6519 23.2308L40.601 23C39.8887 20.2308 38.4132 17.3077 36.5053 14.8206L36.1237 15.2821Z" fill="white"/>
<path d="M16.7136 31.5642L15.5179 30.9744H3.8922C3.6378 29.7693 3.51061 28.5898 3.51061 27.4616C3.51061 26.6924 3.56149 25.9231 3.68868 25.077L3.12902 24.7949C2.97639 25.7436 2.92551 26.6154 2.92551 27.4616C2.92551 28.718 3.07814 30.0257 3.35797 31.3334L3.40885 31.5642H17.1206H16.7136Z" fill="white"/>
<path d="M3.68869 25.0513L15.4925 30.9488L16.6881 31.5385H17.0951L16.51 30.7693L0.712298 22.8975C1.39916 20.3077 2.77287 17.6154 4.55362 15.2821L4.17203 14.7949C2.23865 17.2821 0.763176 20.2052 0.0508784 22.9744L0 23.2052L3.12902 24.7693L3.68869 25.0513Z" fill="white"/>
<path d="M24.1418 30.7949L36.1237 15.2821L36.5053 14.7949L39.4817 10.9487L39.3036 10.7692C36.3272 7.71795 32.6894 5.38462 28.6954 4L28.5683 4.58974C32.3587 5.92308 35.8439 8.12821 38.6931 11.0256L23.2769 31H22.3865L22.2339 31.5897H22.9462H23.5567L24.1418 30.7949Z" fill="white"/>
<path d="M19.5882 31.5641H18.3671L18.2399 30.9744H17.4004L1.98426 11C4.83346 8.12821 8.31863 5.92308 12.1091 4.58975L11.9564 3.97437C7.98792 5.38462 4.35011 7.71796 1.37372 10.7692L1.19565 10.9487L4.17204 14.7949L4.55362 15.2821L16.5355 30.7949L17.1206 31.5641H17.2732H17.8838H19.5882Z" fill="white"/>
<path d="M22.2084 31.5641L22.3611 30.9744L28.5682 4.58976L28.6954 4.00002L29.1533 2.00002L28.8735 1.9231C25.9989 1.25643 23.0988 0.923096 20.2496 0.923096C17.4004 0.923096 14.6276 1.25643 11.7784 1.94874L11.4985 2.02566L11.9564 4.02566L12.0836 4.6154L18.2145 31L18.3417 31.5898H19.5628H19.8935H20.504H20.7075H21.4198H21.4453L22.2084 31.5641ZM12.2108 2.43592C14.9074 1.82053 17.5276 1.51284 20.2496 1.51284C22.9462 1.51284 25.6936 1.82053 28.4411 2.43592L21.7505 30.9744H18.8505L12.2108 2.43592Z" fill="white"/>
<path d="M57.747 19.8462C60.7743 19.8462 62.2752 17.5642 62.2752 17.5642H62.6059V20.718C62.6059 20.718 60.876 22.7949 57.3145 22.7949C52.6591 22.7949 49.0977 19.2052 49.0977 14.5129C49.0977 9.82058 52.6591 6.23083 57.3145 6.23083C61.2067 6.23083 63.0383 8.41032 63.0383 8.41032L61.8427 10.9231C61.8427 10.9231 60.7743 9.17955 57.747 9.17955C54.618 9.17955 52.4556 11.359 52.4556 14.5129C52.4556 17.6667 54.618 19.8462 57.747 19.8462Z" fill="white"/>
<path d="M79.2431 22.4616H76.0124V9.51293H69.1947V22.4616H65.9639V6.56421H79.2431V22.4616Z" fill="white"/>
<path d="M83.1353 6.56421H93.6163V9.51293H86.3661V13.0001H91.9882V15.9488H86.3661V19.5386H93.6163V22.4873H83.1353V6.56421Z" fill="white"/>
<path d="M100.638 13.8463L107.023 6.53857H110.686L104.097 14.154L111.22 22.436H107.226L100.638 14.6924V22.436H97.4067V6.53857H100.638V13.8463Z" fill="white"/>
<path d="M124.296 6.56421V9.51293H119.641V22.4616H116.41V9.51293H111.754V6.56421H124.296Z" fill="white"/>
<path d="M130.681 22.4616H127.45V6.56421H132.411C136.405 6.56421 138.669 8.84626 138.669 12.1283C138.669 15.3847 136.405 17.6924 132.411 17.6924H130.681V22.4616ZM130.681 14.7181H132.411C134.243 14.7181 135.337 13.7437 135.337 12.1027C135.337 10.4616 134.268 9.48729 132.411 9.48729H130.681V14.7181Z" fill="white"/>
<path d="M145.919 18.0001L139.967 6.56421H143.426L147.497 14.6155H147.573L151.312 6.56421H154.772L148.947 18.6411C147.471 21.6924 146.454 22.7693 144.189 22.7693C143.503 22.7693 142.892 22.5642 142.892 22.5642L142.46 19.5129C142.46 19.5129 142.994 19.8463 143.757 19.8463C144.724 19.8463 145.232 19.4104 145.589 18.6411L145.919 18.0001Z" fill="white"/>
<path d="M168.382 6.56421H171.613L173.877 22.4616H170.443L169.171 13.0001H169.069L165.813 22.4616H163.116L159.86 13.0001H159.758L158.486 22.4616H155.027L157.291 6.56421H160.521L164.439 17.8975H164.541L168.382 6.56421Z" fill="white"/>
<path d="M53.0153 31.1539H52.5065V28.7949L50.8784 31.1539H50.3696V27.9487H50.8784V30.3077L52.5065 27.9487H52.9899V31.1539H53.0153Z" fill="white"/>
<path d="M56.3733 31.1539H55.8645V29.7692H54.3381V31.1539H53.8293V27.9487H54.3381V29.2821H55.8645V27.9487H56.3733V31.1539Z" fill="white"/>
<path d="M58.7391 27.9487H59.2479V29.4359L60.5199 27.9487H61.1304L59.8076 29.4872L61.2322 31.1539H60.5708L59.2479 29.5898V31.1539H58.7391V29.5898L57.4163 31.1539H56.7549L58.1795 29.4872L56.8566 27.9487H57.4672L58.7391 29.4359V27.9487Z" fill="white"/>
<path d="M64.2594 31.1539H63.7507V28.7949L62.1226 31.1539H61.6138V27.9487H62.1226V30.3077L63.7507 27.9487H64.234V31.1539H64.2594Z" fill="white"/>
<path d="M67.6429 31.1539H67.1341V29.7692H65.6077V31.1539H65.0989V27.9487H65.6077V29.2821H67.1341V27.9487H67.6429V31.1539Z" fill="white"/>
<path d="M71.1026 31.1539H70.5938V28.7949L68.9657 31.1539H68.4569V27.9487H68.9657V30.3077L70.5938 27.9487H71.0771V31.1539H71.1026Z" fill="white"/>
<path d="M72.4509 31.1539H71.9421V27.9487H72.8833C73.6211 27.9487 74.079 28.4103 74.079 29.0513C74.079 29.6923 73.6211 30.1539 72.8833 30.1539H72.4509V31.1539ZM72.4509 29.6667H72.8833C73.2649 29.6667 73.5448 29.4359 73.5448 29.0513C73.5448 28.6923 73.2904 28.4359 72.8833 28.4359H72.4509V29.6667Z" fill="white"/>
<path d="M77.3606 31.1539H76.8519V28.7949L75.2238 31.1539H74.715V27.9487H75.2238V30.3077L76.8519 27.9487H77.3352V31.1539H77.3606Z" fill="white"/>
<path d="M80.7441 31.1539H80.2353V29.7692H78.7089V31.1539H78.2001V27.9487H78.7089V29.2821H80.2353V27.9487H80.7441V31.1539Z" fill="white"/>
<path d="M83.3897 27.9487V28.4359H82.0923V31.1282H81.5836V27.9487H83.3897Z" fill="white"/>
<path d="M85.2722 32.1026H84.8143V27.6667H85.2722V32.1026Z" fill="white"/>
<path d="M89.8004 31.1539H89.2916V28.4616H87.7653V31.1539H87.2565V27.9487H89.8004V31.1539Z" fill="white"/>
<path d="M91.1232 31.1539H90.6144V27.9487H91.5557C92.2934 27.9487 92.7513 28.4103 92.7513 29.0513C92.7513 29.6923 92.2934 30.1539 91.5557 30.1539H91.1232V31.1539ZM91.1232 29.6667H91.5557C91.9373 29.6667 92.2171 29.4359 92.2171 29.0513C92.2171 28.6923 91.9627 28.4359 91.5557 28.4359H91.1232V29.6667Z" fill="white"/>
<path d="M94.8882 31.2052C93.947 31.2052 93.2347 30.4872 93.2347 29.5385C93.2347 28.5898 93.947 27.8718 94.8882 27.8718C95.8295 27.8718 96.5418 28.5898 96.5418 29.5385C96.5418 30.4872 95.8295 31.2052 94.8882 31.2052ZM94.8882 30.718C95.5496 30.718 96.0076 30.2308 96.0076 29.5385C96.0076 28.8462 95.5242 28.359 94.8882 28.359C94.2522 28.359 93.7689 28.8462 93.7689 29.5385C93.7435 30.2564 94.2268 30.718 94.8882 30.718Z" fill="white"/>
<path d="M97.1778 27.9487H99.1875V28.4359H97.6866V29.2821H98.8568V29.7692H97.6866V30.6667H99.1875V31.1539H97.1778V27.9487Z" fill="white"/>
<path d="M100.409 29.4616L101.782 27.9487H102.418L100.994 29.4872L102.52 31.1539H101.859L100.409 29.5641V31.1539H99.8998V27.9487H100.409V29.4616Z" fill="white"/>
<path d="M104.962 27.9487V28.4359H104.021V31.1282H103.512V28.4359H102.571V27.9487H104.962Z" fill="white"/>
<path d="M108.168 31.1539H107.659V28.7949L106.031 31.1539H105.522V27.9487H106.031V30.3077L107.659 27.9487H108.142V31.1539H108.168Z" fill="white"/>
<path d="M109.516 31.1539H109.007V27.9487H109.948C110.686 27.9487 111.144 28.4103 111.144 29.0513C111.144 29.6923 110.686 30.1539 109.948 30.1539H109.516V31.1539ZM109.516 29.6667H109.948C110.33 29.6667 110.61 29.4359 110.61 29.0513C110.61 28.6923 110.355 28.4359 109.948 28.4359H109.516V29.6667Z" fill="white"/>
<path d="M113.255 31.2052C112.314 31.2052 111.602 30.4872 111.602 29.5385C111.602 28.5898 112.314 27.8718 113.255 27.8718C114.197 27.8718 114.909 28.5898 114.909 29.5385C114.909 30.4872 114.222 31.2052 113.255 31.2052ZM113.255 30.718C113.917 30.718 114.375 30.2308 114.375 29.5385C114.375 28.8462 113.891 28.359 113.255 28.359C112.619 28.359 112.136 28.8462 112.136 29.5385C112.136 30.2564 112.619 30.718 113.255 30.718Z" fill="white"/>
<path d="M117.555 28.8205C117.555 29.359 117.122 29.4616 117.122 29.4616V29.4872C117.122 29.4872 117.707 29.6154 117.707 30.2564C117.707 30.7692 117.351 31.1539 116.613 31.1539H115.545V27.9487H116.486C117.224 27.9487 117.555 28.3077 117.555 28.8205ZM116.079 28.4359V29.2564H116.512C116.868 29.2564 117.02 29.1026 117.02 28.8462C117.02 28.5898 116.842 28.4359 116.512 28.4359H116.079ZM116.079 30.6667H116.613C116.97 30.6667 117.173 30.4872 117.173 30.2051C117.173 29.9231 116.97 29.7436 116.613 29.7436H116.079V30.6667Z" fill="white"/>
<path d="M118.877 30.3846L118.521 31.1539H117.962L119.412 27.9744H119.87L121.32 31.1539H120.76L120.404 30.3846H118.877ZM119.641 28.6667L119.081 29.8974H120.175L119.641 28.6667Z" fill="white"/>
<path d="M124.271 31.1539H123.762V29.7692H122.235V31.1539H121.727V27.9487H122.235V29.2821H123.762V27.9487H124.271V31.1539Z" fill="white"/>
<path d="M127.73 31.1539H127.221V28.7949L125.593 31.1539H125.085V27.9487H125.593V30.3077L127.221 27.9487H127.705V31.1539H127.73Z" fill="white"/>
<path d="M128.57 27.9487H130.579V28.4359H129.079V29.2821H130.249V29.7692H129.079V30.6667H130.579V31.1539H128.57V27.9487Z" fill="white"/>
<path d="M132.869 32.1026H132.411V27.6667H132.869V32.1026Z" fill="white"/>
<path d="M136.354 30.718C136.99 30.718 137.295 30.2052 137.295 30.2052H137.372V30.7436C137.372 30.7436 137.016 31.1795 136.303 31.1795C135.362 31.1795 134.65 30.4616 134.65 29.5129C134.65 28.5641 135.362 27.8462 136.303 27.8462C137.066 27.8462 137.448 28.3077 137.448 28.3077L137.245 28.718C137.245 28.718 136.939 28.3334 136.354 28.3334C135.667 28.3334 135.184 28.8206 135.184 29.5129C135.184 30.2564 135.667 30.718 136.354 30.718Z" fill="white"/>
<path d="M140.094 27.9487V28.4359H139.152V31.1282H138.644V28.4359H137.702V27.9487H140.094Z" fill="white"/>
<path d="M141.188 31.1539H140.679V27.9487H141.62C142.358 27.9487 142.816 28.4103 142.816 29.0513C142.816 29.6923 142.358 30.1539 141.62 30.1539H141.188V31.1539ZM141.188 29.6667H141.62C142.002 29.6667 142.282 29.4359 142.282 29.0513C142.282 28.6923 142.027 28.4359 141.62 28.4359H141.188V29.6667Z" fill="white"/>
<path d="M144.927 31.2052C143.986 31.2052 143.274 30.4872 143.274 29.5385C143.274 28.5898 143.986 27.8718 144.927 27.8718C145.868 27.8718 146.581 28.5898 146.581 29.5385C146.581 30.4872 145.894 31.2052 144.927 31.2052ZM144.927 30.718C145.589 30.718 146.046 30.2308 146.046 29.5385C146.046 28.8462 145.563 28.359 144.927 28.359C144.291 28.359 143.808 28.8462 143.808 29.5385C143.808 30.2564 144.291 30.718 144.927 30.718Z" fill="white"/>
<path d="M149.862 31.1539H149.354V28.7949L147.726 31.1539H147.217V27.9487H147.726V30.3077L149.354 27.9487H149.837V31.1539H149.862Z" fill="white"/>
<path d="M152.864 27.9487V28.4359H151.923V31.1282H151.414V28.4359H150.473V27.9487H152.864Z" fill="white"/>
<path d="M153.424 27.9487H155.434V28.4359H153.933V29.2821H155.103V29.7692H153.933V30.6667H155.434V31.1539H153.424V27.9487Z" fill="white"/>
<path d="M156.807 29.8462C156.731 30.7692 156.375 31.1282 155.815 31.2308L155.713 30.7436C156.019 30.6667 156.222 30.5128 156.273 29.8462L156.451 27.9487H158.486V31.1282H157.977V28.4359H156.934L156.807 29.8462Z" fill="white"/>
<path d="M159.835 28.9744H160.267C161.03 28.9744 161.463 29.4103 161.463 30.0769C161.463 30.7436 161.03 31.1795 160.267 31.1795H159.326V27.9487H159.835V28.9744ZM159.835 30.6667H160.267C160.649 30.6667 160.928 30.4359 160.928 30.0513C160.928 29.6923 160.674 29.4359 160.267 29.4359H159.835V30.6667Z" fill="white"/>
<path d="M163.6 30.718C164.236 30.718 164.541 30.2052 164.541 30.2052H164.617V30.7436C164.617 30.7436 164.261 31.1795 163.549 31.1795C162.607 31.1795 161.895 30.4616 161.895 29.5129C161.895 28.5641 162.607 27.8462 163.549 27.8462C164.312 27.8462 164.693 28.3077 164.693 28.3077L164.49 28.718C164.49 28.718 164.185 28.3334 163.6 28.3334C162.913 28.3334 162.429 28.8206 162.429 29.5129C162.429 30.2564 162.913 30.718 163.6 30.718Z" fill="white"/>
<path d="M167.339 27.9487V28.4359H166.398V31.1282H165.889V28.4359H164.948V27.9487H167.339Z" fill="white"/>
<path d="M169.909 28.8205C169.909 29.359 169.476 29.4616 169.476 29.4616V29.4872C169.476 29.4872 170.061 29.6154 170.061 30.2564C170.061 30.7692 169.705 31.1539 168.967 31.1539H167.899V27.9487H168.84C169.578 27.9487 169.909 28.3077 169.909 28.8205ZM168.433 28.4359V29.2564H168.865C169.222 29.2564 169.374 29.1026 169.374 28.8462C169.374 28.5898 169.196 28.4359 168.865 28.4359H168.433ZM168.433 30.6667H168.967C169.323 30.6667 169.527 30.4872 169.527 30.2051C169.527 29.9231 169.323 29.7436 168.967 29.7436H168.433V30.6667Z" fill="white"/>
<path d="M172.198 31.2052C171.257 31.2052 170.544 30.4872 170.544 29.5385C170.544 28.5898 171.257 27.8718 172.198 27.8718C173.139 27.8718 173.852 28.5898 173.852 29.5385C173.852 30.4872 173.139 31.2052 172.198 31.2052ZM172.198 30.718C172.859 30.718 173.317 30.2308 173.317 29.5385C173.317 28.8462 172.834 28.359 172.198 28.359C171.562 28.359 171.079 28.8462 171.079 29.5385C171.053 30.2564 171.537 30.718 172.198 30.718Z" fill="white"/>
<path d="M177.54 5.2052C177.54 5.2052 177.591 5.30776 177.591 5.43597C177.591 5.58982 177.54 5.69238 177.54 5.69238H176.752V8.35905C176.752 8.35905 176.65 8.41033 176.472 8.41033C176.268 8.41033 176.192 8.35905 176.192 8.35905V5.69238H175.403C175.403 5.69238 175.352 5.58982 175.352 5.46161C175.352 5.30776 175.403 5.2052 175.403 5.2052H177.54Z" fill="white"/>
<path d="M180.644 5.20521C180.847 5.20521 181 5.25649 181 5.25649V8.35905C181 8.35905 180.898 8.41033 180.72 8.41033C180.542 8.41033 180.44 8.35905 180.44 8.35905V7.38469C180.44 6.89751 180.415 6.28213 180.466 5.92316H180.44C180.364 6.20521 180.135 6.66674 179.957 7.05136L179.652 7.69239C179.652 7.69239 179.575 7.71803 179.499 7.71803C179.397 7.71803 179.346 7.69239 179.346 7.69239C179.245 7.48726 179.143 7.28213 179.041 7.05136C178.863 6.66674 178.609 6.17957 178.532 5.89751H178.507C178.583 6.20521 178.558 6.79495 178.558 7.25649V8.33341C178.558 8.33341 178.456 8.38469 178.303 8.38469C178.151 8.38469 178.049 8.33341 178.049 8.33341V5.23085C178.049 5.23085 178.176 5.17957 178.38 5.17957C178.558 5.17957 178.71 5.23085 178.71 5.23085L179.118 6.05136C179.27 6.35905 179.423 6.69239 179.499 6.92316H179.525C179.575 6.79495 179.626 6.6411 179.703 6.46162C179.906 6.05136 180.084 5.6411 180.262 5.23085C180.389 5.20521 180.542 5.20521 180.644 5.20521Z" fill="white"/>
</g>
<defs>
<clipPath id="clip0_138_1160">
<rect width="181" height="33" fill="white"/>
</clipPath>
</defs>
</svg>

<svg width="181" height="33" fill="none" xmlns="http://www.w3.org/2000/svg"><g clip-path="url(#clip0_138_1160)" fill="#fff"><path d="M36.963 25.051c.127.847.178 1.616.178 2.385a17.06 17.06 0 01-.381 3.513h-11.6l-1.196.59h-.407 13.711l.051-.231c.28-1.334.433-2.616.433-3.872 0-.846-.077-1.718-.204-2.667l-.585.282z"/><path d="M36.124 15.282c1.78 2.308 3.129 5.026 3.841 7.616l-15.823 7.897-.585.77h.407l1.195-.59 11.804-5.898.56-.282 3.129-1.564L40.6 23c-.712-2.77-2.188-5.692-4.096-8.18l-.381.462zm-19.41 16.282l-1.196-.59H3.892a17.052 17.052 0 01-.381-3.512c0-.77.05-1.539.178-2.385l-.56-.282c-.153.949-.203 1.82-.203 2.667 0 1.256.152 2.564.432 3.871l.05.231h13.713-.407z"/><path d="M3.689 25.051l11.803 5.898 1.196.59h.407l-.585-.77L.712 22.898c.687-2.59 2.06-5.283 3.842-7.616l-.382-.487c-1.933 2.487-3.409 5.41-4.121 8.18l-.051.23 3.129 1.564.56.282zm20.453 5.744l11.982-15.513.381-.487 2.977-3.846-.178-.18C36.327 7.718 32.689 5.385 28.695 4l-.127.59a26.633 26.633 0 0110.125 6.436L23.277 31h-.89l-.153.59h1.322l.586-.795z"/><path d="M19.588 31.564h-1.22l-.128-.59h-.84L1.984 11A26.882 26.882 0 0112.11 4.59l-.153-.616A27.863 27.863 0 001.374 10.77l-.178.18 2.976 3.846.382.487 11.982 15.513.585.77h2.467z"/><path d="M22.208 31.564l.153-.59L28.568 4.59l.127-.59.458-2-.28-.077c-2.874-.667-5.774-1-8.623-1-2.85 0-5.622.333-8.472 1.026l-.28.077.458 2 .128.59L18.214 31l.128.59h3.103l.763-.026zM12.211 2.436a35.644 35.644 0 018.039-.923c2.696 0 5.444.308 8.191.923l-6.69 28.538h-2.9L12.21 2.436zm45.536 17.41c3.027 0 4.528-2.282 4.528-2.282h.33v3.154s-1.729 2.077-5.29 2.077c-4.656 0-8.217-3.59-8.217-8.282s3.561-8.282 8.217-8.282c3.892 0 5.723 2.18 5.723 2.18l-1.195 2.512S60.774 9.18 57.747 9.18c-3.129 0-5.291 2.179-5.291 5.333 0 3.154 2.162 5.333 5.291 5.333zm21.496 2.616h-3.23V9.512h-6.818v12.95h-3.231V6.564h13.28v15.898zm3.892-15.898h10.481v2.949h-7.25V13h5.622v2.949h-5.622v3.59h7.25v2.948h-10.48V6.564zm17.503 7.282l6.385-7.307h3.663l-6.589 7.615 7.123 8.282h-3.994l-6.588-7.744v7.744h-3.231V6.539h3.231v7.307zm23.658-7.282v2.949h-4.655v12.949h-3.231V9.512h-4.656V6.565h12.542zm6.385 15.898h-3.231V6.564h4.961c3.994 0 6.258 2.282 6.258 5.564 0 3.257-2.264 5.564-6.258 5.564h-1.73v4.77zm0-7.744h1.73c1.832 0 2.926-.974 2.926-2.615 0-1.641-1.069-2.616-2.926-2.616h-1.73v5.231zM145.919 18l-5.952-11.436h3.459l4.071 8.052h.076l3.739-8.052h3.46l-5.825 12.077c-1.476 3.051-2.493 4.128-4.758 4.128-.686 0-1.297-.205-1.297-.205l-.432-3.051s.534.333 1.297.333c.967 0 1.475-.436 1.832-1.205l.33-.64zm22.463-11.436h3.231l2.264 15.898h-3.434L169.171 13h-.102l-3.256 9.462h-2.697L159.86 13h-.102l-1.272 9.462h-3.459l2.264-15.898h3.23l3.918 11.334h.102l3.841-11.334zM53.015 31.154h-.508v-2.36l-1.629 2.36h-.508v-3.205h.508v2.359l1.629-2.36h.483v3.206h.025zm3.358 0h-.508v-1.385h-1.527v1.385h-.509v-3.205h.51v1.333h1.526V27.95h.508v3.205zm2.367-3.205h.508v1.487l1.272-1.487h.61l-1.322 1.538 1.424 1.667h-.661l-1.323-1.564v1.564h-.509V29.59l-1.323 1.564h-.661l1.424-1.667-1.322-1.538h.61l1.272 1.487v-1.487zm5.52 3.205h-.51v-2.36l-1.627 2.36h-.51v-3.205h.51v2.359l1.628-2.36h.483v3.206h.025zm3.383 0h-.509v-1.385h-1.526v1.385h-.51v-3.205h.51v1.333h1.526V27.95h.509v3.205zm3.46 0h-.51v-2.36l-1.627 2.36h-.51v-3.205h.51v2.359l1.628-2.36h.483v3.206h.026zm1.347 0h-.508v-3.205h.941c.738 0 1.196.461 1.196 1.102s-.458 1.103-1.196 1.103h-.432v1zm0-1.487h.433c.382 0 .662-.231.662-.616 0-.359-.255-.615-.662-.615h-.432v1.23zm4.91 1.487h-.508v-2.36l-1.628 2.36h-.509v-3.205h.509v2.359l1.628-2.36h.483v3.206h.026zm3.384 0h-.509v-1.385H78.71v1.385h-.51v-3.205h.509v1.333h1.526V27.95h.51v3.205zm2.646-3.205v.487h-1.298v2.692h-.508v-3.18h1.806zm1.882 4.154h-.458v-4.436h.458v4.436zm4.528-.949h-.508v-2.692h-1.527v2.692h-.508v-3.205H89.8v3.205zm1.323 0h-.509v-3.205h.942c.737 0 1.195.461 1.195 1.102s-.458 1.103-1.195 1.103h-.433v1zm0-1.487h.433c.381 0 .661-.231.661-.616 0-.359-.254-.615-.661-.615h-.433v1.23zm3.765 1.538c-.941 0-1.653-.718-1.653-1.666 0-.95.712-1.667 1.653-1.667.941 0 1.654.718 1.654 1.666 0 .95-.713 1.667-1.654 1.667zm0-.487c.662 0 1.12-.487 1.12-1.18 0-.692-.484-1.179-1.12-1.179-.636 0-1.12.487-1.12 1.18-.025.717.459 1.179 1.12 1.179zm2.29-2.769h2.01v.487h-1.501v.846h1.17v.487h-1.17v.898h1.5v.487h-2.01v-3.205zm3.231 1.513l1.373-1.513h.636l-1.424 1.538 1.526 1.667h-.661l-1.45-1.59v1.59h-.51v-3.205h.51v1.513zm4.553-1.513v.487h-.941v2.692h-.509v-2.692h-.941v-.487h2.391zm3.206 3.205h-.509v-2.36l-1.628 2.36h-.509v-3.205h.509v2.359l1.628-2.36h.483v3.206h.026zm1.348 0h-.509v-3.205h.941c.738 0 1.196.461 1.196 1.102s-.458 1.103-1.196 1.103h-.432v1zm0-1.487h.432c.382 0 .662-.231.662-.616 0-.359-.255-.615-.662-.615h-.432v1.23zm3.739 1.538c-.941 0-1.653-.718-1.653-1.666 0-.95.712-1.667 1.653-1.667.942 0 1.654.718 1.654 1.666 0 .95-.687 1.667-1.654 1.667zm0-.487c.662 0 1.12-.487 1.12-1.18 0-.692-.484-1.179-1.12-1.179-.636 0-1.119.487-1.119 1.18 0 .717.483 1.179 1.119 1.179zm4.3-1.898c0 .539-.433.642-.433.642v.025s.585.128.585.77c0 .512-.356.897-1.094.897h-1.068v-3.205h.941c.738 0 1.069.359 1.069.871zm-1.476-.384v.82h.433c.356 0 .508-.153.508-.41 0-.256-.178-.41-.508-.41h-.433zm0 2.23h.534c.357 0 .56-.179.56-.46 0-.283-.203-.462-.56-.462h-.534v.923zm2.798-.281l-.356.769h-.559l1.45-3.18h.458l1.45 3.18h-.56l-.356-.77h-1.527zm.764-1.718l-.56 1.23h1.094l-.534-1.23zm4.63 2.487h-.509v-1.385h-1.527v1.385h-.508v-3.205h.508v1.333h1.527V27.95h.509v3.205zm3.459 0h-.509v-2.36l-1.628 2.36h-.508v-3.205h.508v2.359l1.628-2.36h.484v3.206h.025zm.84-3.205h2.009v.487h-1.5v.846h1.17v.487h-1.17v.898h1.5v.487h-2.009v-3.205zm4.299 4.154h-.458v-4.436h.458v4.436zm3.485-1.385c.636 0 .941-.513.941-.513h.077v.539s-.356.436-1.069.436c-.941 0-1.653-.718-1.653-1.667 0-.949.712-1.667 1.653-1.667.763 0 1.145.462 1.145.462l-.203.41s-.306-.385-.891-.385c-.687 0-1.17.488-1.17 1.18 0 .743.483 1.205 1.17 1.205zm3.74-2.769v.487h-.942v2.692h-.508v-2.692h-.942v-.487h2.392zm1.094 3.205h-.509v-3.205h.941c.738 0 1.196.461 1.196 1.102s-.458 1.103-1.196 1.103h-.432v1zm0-1.487h.432c.382 0 .662-.231.662-.616 0-.359-.255-.615-.662-.615h-.432v1.23zm3.739 1.538c-.941 0-1.653-.718-1.653-1.666 0-.95.712-1.667 1.653-1.667.941 0 1.654.718 1.654 1.666 0 .95-.687 1.667-1.654 1.667zm0-.487c.662 0 1.119-.487 1.119-1.18 0-.692-.483-1.179-1.119-1.179s-1.119.487-1.119 1.18c0 .717.483 1.179 1.119 1.179zm4.935.436h-.508v-2.36l-1.628 2.36h-.509v-3.205h.509v2.359l1.628-2.36h.483v3.206h.025zm3.002-3.205v.487h-.941v2.692h-.509v-2.692h-.941v-.487h2.391zm.56 0h2.01v.487h-1.501v.846h1.17v.487h-1.17v.898h1.501v.487h-2.01v-3.205zm3.383 1.897c-.076.923-.432 1.282-.992 1.385l-.102-.487c.306-.077.509-.231.56-.898l.178-1.897h2.035v3.18h-.509v-2.693h-1.043l-.127 1.41zm3.028-.872h.432c.763 0 1.196.436 1.196 1.103s-.433 1.102-1.196 1.102h-.941v-3.23h.509v1.025zm0 1.693h.432c.382 0 .661-.231.661-.616 0-.359-.254-.615-.661-.615h-.432v1.23zm3.765.051c.636 0 .941-.513.941-.513h.076v.539s-.356.436-1.068.436c-.942 0-1.654-.718-1.654-1.667 0-.949.712-1.667 1.654-1.667.763 0 1.144.462 1.144.462l-.203.41s-.305-.385-.89-.385c-.687 0-1.171.488-1.171 1.18 0 .743.484 1.205 1.171 1.205zm3.739-2.769v.487h-.941v2.692h-.509v-2.692h-.941v-.487h2.391zm2.57.871c0 .539-.433.642-.433.642v.025s.585.128.585.77c0 .512-.356.897-1.094.897h-1.068v-3.205h.941c.738 0 1.069.359 1.069.871zm-1.476-.384v.82h.432c.357 0 .509-.153.509-.41 0-.256-.178-.41-.509-.41h-.432zm0 2.23h.534c.356 0 .56-.179.56-.46 0-.283-.204-.462-.56-.462h-.534v.923zm3.765.539c-.941 0-1.654-.718-1.654-1.666 0-.95.713-1.667 1.654-1.667s1.654.718 1.654 1.666c0 .95-.713 1.667-1.654 1.667zm0-.487c.661 0 1.119-.487 1.119-1.18 0-.692-.483-1.179-1.119-1.179s-1.119.487-1.119 1.18c-.026.717.458 1.179 1.119 1.179zm5.342-25.513s.051.103.051.231c0 .154-.051.256-.051.256h-.788V8.36s-.102.051-.28.051c-.204 0-.28-.051-.28-.051V5.692h-.789s-.051-.102-.051-.23c0-.154.051-.257.051-.257h2.137zm3.104 0c.203 0 .356.051.356.051V8.36s-.102.051-.28.051c-.178 0-.28-.051-.28-.051v-.974c0-.487-.025-1.103.026-1.462h-.026c-.076.282-.305.744-.483 1.128l-.305.641s-.077.026-.153.026c-.102 0-.153-.026-.153-.026-.101-.205-.203-.41-.305-.64-.178-.385-.432-.872-.509-1.154h-.025c.076.307.051.897.051 1.358v1.077s-.102.052-.255.052c-.152 0-.254-.052-.254-.052V5.231s.127-.051.331-.051c.178 0 .33.05.33.05l.408.821c.152.308.305.641.381.872h.026c.05-.128.101-.282.178-.461.203-.41.381-.82.559-1.231.127-.026.28-.026.382-.026z"/></g><defs><clipPath id="clip0_138_1160"><path fill="#fff" d="M0 0h181v33H0z"/></clipPath></defs></svg>
